public/svgs/light/square-user.svg

<svg xmlns="http://www.w3.org/2000/svg" viewBox="0 0 448 512"><!-- Font Awesome Pro 6.0.0-alpha2 by @fontawesome - https://fontawesome.com License - https://fontawesome.com/license (Commercial License) --><path d="M384 32H64C28.654 32 0 60.652 0 96V416C0 451.346 28.654 480 64 480H384C419.346 480 448 451.346 448 416V96C448 60.652 419.346 32 384 32ZM96 448C96 395.064 139.066 352 192 352H256C308.936 352 352 395.064 352 448H96ZM416 416C416 433.645 401.645 448 384 448C384 377.307 326.693 320 256 320H192C121.309 320 64 377.307 64 448C46.355 448 32 433.645 32 416V96C32 78.355 46.355 64 64 64H384C401.645 64 416 78.355 416 96V416ZM224 128C179.818 128 144 163.816 144 208C144 252.182 179.818 288 224 288C268.184 288 304 252.182 304 208C304 163.816 268.184 128 224 128ZM224 256C197.533 256 176 234.467 176 208S197.533 160 224 160S272 181.533 272 208S250.467 256 224 256Z"/></svg>

<svg xmlns="http://www.w3.org/2000/svg" viewBox="0 0 448 512"><!--! Font Awesome Pro 6.5.1 by @fontawesome - https://fontawesome.com License - https://fontawesome.com/license (Commercial License) Copyright 2023 Fonticons, Inc. --><path d="M384 64c17.7 0 32 14.3 32 32V416c0 17.7-14.3 32-32 32c0-70.7-57.3-128-128-128H192c-70.7 0-128 57.3-128 128c-17.7 0-32-14.3-32-32V96c0-17.7 14.3-32 32-32H384zM352 448H96c0-53 43-96 96-96h64c53 0 96 43 96 96zM64 32C28.7 32 0 60.7 0 96V416c0 35.3 28.7 64 64 64H384c35.3 0 64-28.7 64-64V96c0-35.3-28.7-64-64-64H64zM224 256a48 48 0 1 1 0-96 48 48 0 1 1 0 96zm-80-48a80 80 0 1 0 160 0 80 80 0 1 0 -160 0z"/></svg>
